X:1
T:[ID 1-36]
T:[ID 1-36]
T:Bezeichnung standardisiert: Menuet Jomelli; Menuet In anderer Quelle: Menuet van Jomelli - Hs. Volksmelodie\"en 1755-1773 (Anm. S. Wascher);
T:Urheber unbekannt Erstbeleg: 1755-1767 (Datum in der schriftlichen Quelle) Datum in der hier transkribierten schriftlichen Quelle: 1775
C:Urheber unbekannt
C:Erstbeleg: 1755-1767 (Datum in der schriftlichen Quelle)
C:Datum in der hier transkribierten schriftlichen Quelle: 1775
L:1/8
M:3/4
K:D
V:1 treble 
V:1
 bg B2 A2 | GA B4 | Bd B2 A2 | GA B4 | de f2 f2 | ^cd e2 e2 | ^cedGFE | F6 :: d4 b2 | b2 ag a2 | %10
 d4 a2 | a2 gf g2 |"^O)" gBAGCD | C4 B,2 |"^O)" gBAGCD | C4 B,2 | GA B2 B2 | FG A2 A2 | FAGCB,A, | %19
 B,6 :| %20

